dist/telegram--icon.4c2853c9.svg

<svg width="17" height="13" viewBox="0 0 17 13" fill="none" xmlns="http://www.w3.org/2000/svg">
<path d="M6.67066 8.56787L6.38945 12.1975C6.79179 12.1975 6.96604 12.0389 7.17501 11.8484L9.06134 10.1942L12.97 12.8208C13.6869 13.1874 14.1919 12.9943 14.3853 12.2157L16.951 1.18391L16.9517 1.18326C17.179 0.210862 16.5684 -0.169386 15.87 0.0691632L0.789228 5.36729C-0.240005 5.73388 -0.224421 6.26038 0.614266 6.49893L4.46982 7.59937L13.4255 2.45725C13.847 2.20115 14.2302 2.34285 13.915 2.59895L6.67066 8.56787Z" fill="#2C4CBC"/>
</svg>

<svg xmlns="http://www.w3.org/2000/svg" width="17" height="13" fill="none" xmlns:v="https://vecta.io/nano"><path d="M6.671 8.568l-.281 3.63c.402 0 .577-.159.786-.349l1.886-1.654 3.909 2.627c.717.367 1.222.174 1.415-.605l2.566-11.032.001-.001c.227-.972-.383-1.353-1.082-1.114L.789 5.367C-.24 5.734-.224 6.26.614 6.499l3.856 1.1 8.956-5.142c.422-.256.805-.114.489.142L6.671 8.568z" fill="#2c4cbc"/></svg>
